images/my-activations-quantity.svg

<svg width="24" height="24" viewBox="0 0 24 24" fill="none" xmlns="http://www.w3.org/2000/svg">
<path d="M9 18C8.45 18 7.97917 17.8042 7.5875 17.4125C7.19583 17.0208 7 16.55 7 16V4C7 3.45 7.19583 2.97917 7.5875 2.5875C7.97917 2.19583 8.45 2 9 2H18C18.55 2 19.0208 2.19583 19.4125 2.5875C19.8042 2.97917 20 3.45 20 4V16C20 16.55 19.8042 17.0208 19.4125 17.4125C19.0208 17.8042 18.55 18 18 18H9ZM9 16H18V4H9V16ZM5 22C4.45 22 3.97917 21.8042 3.5875 21.4125C3.19583 21.0208 3 20.55 3 20V6H5V20H16V22H5Z" fill="#8B3FFD"/>
</svg>

<svg xmlns="http://www.w3.org/2000/svg" width="24" height="24" fill="none"><path fill="#8B3FFD" d="M9 18c-.55 0-1.02-.196-1.412-.587A1.926 1.926 0 0 1 7 16V4c0-.55.196-1.02.588-1.413A1.926 1.926 0 0 1 9 2h9c.55 0 1.02.196 1.413.587C19.803 2.98 20 3.45 20 4v12c0 .55-.196 1.02-.587 1.413A1.926 1.926 0 0 1 18 18H9Zm0-2h9V4H9v12Zm-4 6c-.55 0-1.02-.196-1.413-.587A1.926 1.926 0 0 1 3 20V6h2v14h11v2H5Z"/></svg>
